!!!COM: Bach, Johann Sebastian
!!!OTL@@DE: 305. Wie s&ouml;chn leuchtet der Morgenstern
!!!OTL@EN: How brightly shines the morning star
!!!SCA: BWV 36.4
**harm	**root	**kern	**kern	**kern	**kern
*staff2	*	*staff2	*staff2	*staff1	*staff1
*Iorgan	*Iorgan	*Iorgan	*Iorgan	*Iorgan	*Iorgan
*>[A,A,B]	*>[A,A,B]	*>[A,A,B]	*>[A,A,B]	*>[A,A,B]	*>[A,A,B]
*>norep[A,B]	*>norep[A,B]	*>norep[A,B]	*>norep[A,B]	*>norep[A,B]	*>norep[A,B]
*>A	*>A	*>A	*>A	*>A	*>A
!	!	!bass	!tenor	!alto	!sprno
*	*	*clefF4	*clefF4	*clefG2	*clefG2
*k[f#c#g#d#a#]	*k[f#c#g#d#a#]	*k[f#c#g#d#a#]	*k[f#c#g#d#a#]	*k[f#c#g#d#a#]	*k[f#c#g#d#a#]
*B:	*B:	*B:	*B:	*B:	*B:
*met(c)	*met(c)	*met(c)	*met(c)	*met(c)	*met(c)
*M4/4	*M4/4	*M4/4	*M4/4	*M4/4	*M4/4
*MM60	*MM60	*MM60	*MM60	*MM60	*MM60
I	4DD	4BB	4D#	4F#	4B
=1	=1	=1	=1	=1	=1
Vb	4AA	4AA#	4C#	4F#	4f#
I	8DD	8BBL	8BBL	4F#	8d#L
Vb	8AA	8AA#J	8C#J	.	8c#J
vi	4BB	4GG#	8D#L	4G#	4B
.	.	.	8E#J	.	.
iii	4FF#	8D#L	4F#	4A#	4f#
.	.	8C#J	.	.	.
=2	=2	=2	=2	=2	=2
vi7	4BB	8BBL	4F#	4d#	8.g#L
.	.	8GG#J	.	.	.
.	.	.	.	.	32a#LL
.	.	.	.	.	32bJJJ
V/V	4EE	4C#	4E#	4c#	8a#L
.	.	.	.	.	8g#J
V;	4AA;	4FF#;	4A#;	4c#;	4f#;
I	4DD	4BB	4B	4d#	4f#
=3	=3	=3	=3	=3	=3
IV	4GG	4E	4B	4e	4g#
viiob	4CC#	8D#L	4c#	4e	4a#
.	.	8C#J	.	.	.
Ib	4DD	8D#L	8F#L	4d#	4b
.	.	8E#J	8G#J	.	.
V	4AA	4F#	4A#	8c#L	4a#
.	.	.	.	8f#J	.
=4	=4	=4	=4	=4	=4
vi7b	8BB	4BB	8D#L	4f#	8g#L
I	8DD	.	8d#J	.	8bJ
V7/V	4EE	4C#	8c#L	4e#	8a#L
.	.	.	8BJ	.	8g#J
V;	4AA;	4FF#;	4A#;	4c#;	4f#;
I	4DD	4BB	4F#	4B	4d#
=5	=5	=5	=5	=5	=5
IV	4GG	4E	4E	4B	4g#
Ib	4DD	4D#	4F#	4B	4f#
viio7b	4CC#	4C#	8G#L	8BL	4e
.	.	.	8EJ	8A#J	.
I	4DD	4BB	4F#	4B	4d#
=6	=6	=6	=6	=6	=6
V7	2AA	2FF#	4.F#	4B	2c#
.	.	.	.	4A#	.
.	.	.	8E	.	.
I;	4DD;	4BB;	4D#;	4F#;	4B;
=7:|!	=7:|!	=7:|!	=7:|!	=7:|!	=7:|!
!!linebreak: 2
*>B	*>B	*>B	*>B	*>B	*>B
Vb	2AA	2AA#	2F#	2c#	2f#
I;	2DD;	2BB;	2F#;	2B;	2d#;
=8	=8	=8	=8	=8	=8
V	2AA	2FF#	2A#	2c#	2f#
I;	2DD;	2BB;	2F#;	2B;	2d#;
=9	=9	=9	=9	=9	=9
I	4DD	8BBL	4F#	4B	4d#
.	.	8C#	.	.	.
Ib	4DD	8D#	4F#	4B	4d#
.	.	8EJ	.	.	.
V	4AA	8F#L	4F#	4A#	4c#
.	.	8G#	.	.	.
V	4AA	8F#	4F#	4A#	4c#
.	.	8EJ	.	.	.
=10	=10	=10	=10	=10	=10
Ib	4DD	8D#L	4F#	4B	4d#
.	.	8C#	.	.	.
I	4DD	8D#	4F#	4B	4d#
.	.	8BBJ	.	.	.
V	4AA	8FF#L	4F#	4A#	4c#
.	.	8F#	.	.	.
viiob/II	4DD#	8E	4F#	4B#	4d#
.	.	8D#J	.	.	.
=11	=11	=11	=11	=11	=11
ii	4EE	4C#	8G#L	4c#	4e
.	.	.	8A#J	.	.
vi	4BB	8G#L	4B	8BL	4d#
.	.	8F#J	.	8A#J	.
ii7b	4EE	4E	8BL	4G#	2c#
.	.	.	16A#L	.	.
.	.	.	16G#JJ	.	.
V7	4AA	4F#	8F#L	4A#	.
.	.	.	8EJ	.	.
=12	=12	=12	=12	=12	=12
I;	2DD;	2BB;	2D#;	2F#;	2B;
vi	4BB	4GG#	8D#L	4d#	4b
.	.	.	8E#J	.	.
V/VI	4FF#	4DD#	4F##	8d#L	4a#
.	.	.	.	8c#J	.
=13	=13	=13	=13	=13	=13
IV	4GG	4EE	4G#	8BL	4g#
.	.	.	.	8c#J	.
iiib	4FF#	4FF#	4A#	[4d#	4f#
IV7	8GG	8GG#L	8BL	8d#]	4e
viio	8CC#	8AA#J	8c#J	4c#	.
I	4DD	4BB	4F#	.	4d#
.	.	.	.	[8B	.
=14	=14	=14	=14	=14	=14
ii	4EE	4EE	4G#	8BL]	2c#
.	.	.	.	16A#L	.
.	.	.	.	16G#JJ	.
V7	4AA	4FF#	8F#L	4A#	.
.	.	.	8EJ	.	.
I;	4DD;	4BBB;	4D#;	4F#;	4B;
==	==	==	==	==	==
*-	*-	*-	*-	*-	*-
!!!ENC: Craig Stuart Sapp
!!!END: 2004/12/06/
!!chor2scor: -l 2 -s 0.6 -o %b.pmx!!chor2scor: -l 2 -s 0.6 -o %b.pmx
